X: 80
T:Crossing The Field (#276)
M:4/4
L:1/8
S:Rice-Walsh manuscript
R:Reel
K:G
DGBG DGBG|DFAF DFAF|DGGA Bcde|fdcA BGAF|
DGBG DGBG|DFAF DFAF|DGGA Bcde|fdcA BG G2||
g2 gf gfde|f2 fe fdcA|fdde fgag|(3efg fa gfga|
bgag fddg|fdcA BGAF|DGGA Bcde|fdcA BG G2||

